X: 12025
T: Eric McDonald's
R: reel
M: 4/4
K: Bminor
|:d2 cB Afed|fBBA B2 de|cAde cAde|c/c/c de cABc|
d2 cB Afed|fBBA BAfe|dBde cAde|ef ef dB B2:|
B2 dB fdga|fdga fdad|eA A/A/A eA de|A/A/A e dcA A/A/A|
B2 dB fdga|faga fdad|eA A/A/A eAde|f2 ef dB B2|
B2 dB fdga|fdga fdef|dAef dAde|cAde cAdc|
B2 dB fdga|faga fdad|eA A/A/A eAde|ef ef dB B2|

